Adwaita++-Dark/status/symbolic/bluetooth-active-symbolic.svg

<svg height="16.033" width="16" xmlns="http://www.w3.org/2000/svg">
  <g fill="#e6ddff" transform="translate(-41.0002 -316.99035)">
    <path d="m47.875 317a1.0001 1.0001 0 0 0 -.875 1v3.5625l-1.28125-1.28125a1.016466 1.016466 0 1 0 -1.4375 1.4375l2.71875 2.71875v1.125l-2.71875 2.71875a1.016466 1.016466 0 1 0 1.4375 1.4375l1.28125-1.28125v3.5625a1.0001 1.0001 0 0 0 1.71875.71875l4-4a1.0001 1.0001 0 0 0 0-1.4375l-2.28125-2.28125 2.28125-2.28125a1.0001 1.0001 0 0 0 0-1.4375l-4-4a1.0001 1.0001 0 0 0 -.84375-.28125zm1.125 3.4375 1.5625 1.5625-1.5625 1.5625zm0 6 1.5625 1.5625-1.5625 1.5625z"/>
    <path d="m44 320h1v1h-1z"/>
    <path d="m44 329h1v1h-1z"/>
    <path d="m47 332h1v1h-1z"/>
    <path d="m47 317h1v1h-1z"/>
  </g>
</svg>

<svg xmlns="http://www.w3.org/2000/svg" width="16" height="16.033" version="1.1">
 <title id="title9167">
  Gnome Symbolic Icon Theme
 </title>
 <g id="layer9" transform="translate(-41.0002,-316.99035)">
  <path fill="#E6DDFF" d="M 47.875,317 A 1.0001,1.0001 0 0 0 47,318 l 0,3.5625 -1.28125,-1.28125 a 1.016466,1.016466 0 1 0 -1.4375,1.4375 L 47,324.4375 l 0,1.125 -2.71875,2.71875 a 1.016466,1.016466 0 1 0 1.4375,1.4375 L 47,328.4375 47,332 a 1.0001,1.0001 0 0 0 1.71875,0.71875 l 4,-4 a 1.0001,1.0001 0 0 0 0,-1.4375 L 50.4375,325 l 2.28125,-2.28125 a 1.0001,1.0001 0 0 0 0,-1.4375 l -4,-4 A 1.0001,1.0001 0 0 0 47.875,317 z M 49,320.4375 50.5625,322 49,323.5625 l 0,-3.125 z m 0,6 L 50.5625,328 49,329.5625 l 0,-3.125 z"/>
  <rect fill="#E6DDFF" width="1" height="1" x="44" y="320"/>
  <rect fill="#E6DDFF" width="1" height="1" x="44" y="329"/>
  <rect fill="#E6DDFF" width="1" height="1" x="47" y="332"/>
  <rect fill="#E6DDFF" width="1" height="1" x="47" y="317"/>
 </g>
</svg>
